X: 3852
T: Black Officer, The
R: jig
M: 6/8
K: Bminor
|:~B3 afe|fBB Bcd|efe (3cdc B|ABc AFE|
~B3 afe|fBB Bce|fba fec|1 B3 B2f:|2 B3 B2c||
|:~B3 ~A3|fba fec|efe a2e|faf ecA|
BAB cBc|Bce fec|fba fec|1 B3 B2c:|2 B3 B2f||

